!!!id: BC092
!!!page: 116-117t
!!!COM: Anonymous
!!!PTL@@FR: Les 100 plus belles chansons
!!!OTL: Sur la route de Dijon
!!!PUB: La Bonne Chanson, inc.
!!!YEM: On ne peut reproduire, enregistrer ou diffuser en tout ou en partie le présent ouvrage, sous quelque procédé que ce soit, électronique, mécanique, photographique, sonore, magnétique ou autre, sans avoir obtenu au préalable l'autorisation écrite de l'éditrice.
!!!PDT: 2011
!!!SMA: 2012 Bibliothèque nationale du Québec; Biblothèque nationale du Canada
!!!AGN-Laforte: Chanson en laisse avec dialogue (avec refrain intégré and rhyming hémistiches), 8:1(7+7)
!!!AGN-type: Chanson d'amour
!!!AGN-rime: monorime double et suivies (aabb), a = /ɔ̃/, b = /ɛnə/
!!!LYR-elision: Final "e" (bell', Marjolain', l'bataillon, *dig'); medial "e" (pass'rez, consol'ra); * = additional letter, dig' = digue
!!!RNB: Final repeated short line treated as final refrain (*>Refrain); asterix in original put in parentheses to avoid mis-interpretation; added a dialogue mark at v:4.
**kern	**text	**text	**text	**text	**text	**text	**text	**text
*clefG2	*	*	*	*	*	*	*	*
*k[f#]	*	*	*	*	*	*	*	*
*G:	*	*	*	*	*	*	*	*
*M2/4	*	*	*	*	*	*	*	*
*	*v:1	*v:2	*v:3	*v:4	*v:5	*v:6	*v:7	*v:8
*	*pline:1Ha	*pline:2Ha	*pline:3Ha	*pline:4Ha	*pline:5Ha	*pline:6Ha	*pline:7Ha	*pline:8Ha
{{8d	Sur	Près	Par	–Bell',	–Mar-	Mar-	Pa-	Quand
8d	la	d'ell[e]	là	com-	-jo-	-jo-	-raît	vous
=1	=1	=1	=1	=1	=1	=1	=1	=1
8g	rou-	un	pass[e]	-ment	-lain'	-lain'	que	pass'-
8g	-te	jo-	un	vous	c'est	qu'a-	tout	-rez
8a	de	-li	ba-	nom-	un	-vez-	l'ba-	à
!!(*)tendron signifie: très jeune fille
8a	Di-	(*)ten-	-tail-	-me-	doux	-vous	-tail-	Di-
=2	=2	=2	=2	=2	=2	=2	=2	=2
8b}	-jon,	-dron,	-lon,	-ton?	nom!	donc?	-lon,	-jon,
*	*rp:ɔ̃	*rp:ɔ̃	*rp:ɔ̃	*rp:ɔ̃	*rp:ɔ̃	*rp:ɔ̃	*rp:ɔ̃	*rp:ɔ̃
*	*rf:ʒɔ̃	*rf:ʁɔ̃	*rf:jɔ̃	*rf:tɔ̃	*rf:nɔ̃	*rf:dɔ̃	*rf:jɔ̃	*rf:ʒɔ̃
*	*rs:a1-	*rs:a3-	*rs:a4-	*rs:a5-	*rs:a6-	*rs:a2-	*rs:a4-	*rs:a1-
*	*refrain	*refrain	*refrain	*refrain	*refrain	*refrain	*refrain	*refrain
*	*italic	*italic	*italic	*italic	*italic	*italic	*italic	*italic
{8b	La	La	La	La	La	La	La	La
16b	bel-	bel-	bel-	bel-	bel-	bel-	bel-	bel-
16a	-le	-le	-le	-le	-le	-le	-le	-le
16g	di-	di-	di-	di-	di-	di-	di-	di-
16a	-gue,	-gue,	-gue,	-gue,	-gue,	-gue,	-gue,	-gue,
!!LO:PB:g=original
=3	=3	=3	=3	=3	=3	=3	=3	=3
8b}	dig',	dig',	dig',	dig',	dig',	dig',	dig',	dig',
*	*bis	*bis	*bis	*bis	*bis	*bis	*bis	*bis
{8b	la	la	la	la	la	la	la	la
16b	bel-	bel-	bel-	bel-	bel-	bel-	bel-	bel-
16a	-le	-le	-le	-le	-le	-le	-le	-le
16g	di-	di-	di-	di-	di-	di-	di-	di-
16a	-gue	-gue	-gue	-gue	-gue	-gue	-gue	-gue
*	*Xbis	*Xbis	*Xbis	*Xbis	*Xbis	*Xbis	*Xbis	*Xbis
=4	=4	=4	=4	=4	=4	=4	=4	=4
8b	don.	don.	don.	don.	don.	don.	don.	don.
*	*rp:ɔ̃	*rp:ɔ̃	*rp:ɔ̃	*rp:ɔ̃	*rp:ɔ̃	*rp:ɔ̃	*rp:ɔ̃	*rp:ɔ̃
*	*rf:dɔ̃	*rf:dɔ̃	*rf:dɔ̃	*rf:dɔ̃	*rf:dɔ̃	*rf:dɔ̃	*rf:dɔ̃	*rf:dɔ̃
*	*rs:a2-	*rs:a2-	*rs:a2-	*rs:a2-	*rs:a2-	*rs:a2-	*rs:a2-	*rs:a2-
*	*Xitalic	*Xitalic	*Xitalic	*Xitalic	*Xitalic	*Xitalic	*Xitalic	*Xitalic
*	*Xrefrain	*Xrefrain	*Xrefrain	*Xrefrain	*Xrefrain	*Xrefrain	*Xrefrain	*Xrefrain
8r}}	.	.	.	.	.	.	.	.
=:||	=:||	=:||	=:||	=:||	=:||	=:||	=:||	=:||
4r	.	.	.	.	.	.	.	.
=5	=5	=5	=5	=5	=5	=5	=5	=5
*	*pline:1Hb	*pline:2Hb	*pline:3Hb	*pline:4Hb	*pline:5Hb	*pline:6Hb	*pline:7Hb	*pline:8Hb
{{8b	Il	Pleu-	Qui	On	S'é-	–Mes-	Con-	Al-
8cc	y a-	-rait	chan-	me	-cri-	-sieurs,	-so-	-lez
8dd	-vait	comm[e]	-tait	nom-	-a-	j'ai	-la	boir[e-
8b	u-	un'	à	-me	-t-un	beau-	la	à
!!LO:PB:g=original
=6	=6	=6	=6	=6	=6	=6	=6	=6
[4dd	-ne	Ma-	perdr[e]	Mar-	ca-	-coup	Mar-	la
8dd]	.	.	.	.	.	.	.	.
8ee	fon-	-de-	ha-	-jo-	-pi-	de	-jo-	fon-
=7	=7	=7	=7	=77	=7	=7	=7	=7
(8ccL	-tai-	-lei-	-lei-	-lai-	-tai-	pei-	-lai-	-tai-
8bJ)	.	.	.	.	.	.	.	.
4a}	-ne,	-ne,	-ne,	-ne,	-ne,	-ne,	-ne,	-ne,
*	*rp:ɛ	*rp:ɛ	*rp:ɛ	*rp:ɛ	*rp:ɛ	*rp:ɛ	*rp:ɛ	*rp:ɛ
*	*rf:ɛn,ə	*rf:ɛn,ə	*rf:ɛn,ə	*rf:ɛn,ə	*rf:ɛn,ə	*rf:ɛn,ə	*rf:ɛn,ə	*rf:ɛn,ə
*	*rs:b1	*rs:b1	*rs:b1	*rs:b1	*rs:b1	*rs:b1	*rs:b1	*rs:b1
=8	=8	=8	=8	=8	=8	=8	=8	=8
*	*refrain	*refrain	*refrain	*refrain	*refrain	*refrain	*refrain	*refrain
*	*italic	*italic	*italic	*italic	*italic	*italic	*italic	*italic
{8b	Dig'	Dig'	Dig'	Dig'	Dig'	Dig'	Dig'	Dig'
8g	don	don	don	don	don	don	don	don
*	*bis	*bis	*bis	*bis	*bis	*bis	*bis	*bis
8b	dig'	dig'	dig'	dig'	dig'	dig'	dig'	dig'
8g	don	don	don	don	don	don	don	don
*	*Xbis	*Xbis	*Xbis	*Xbis	*Xbis	*Xbis	*Xbis	*Xbis
=9	=9	=9	=9	=9	=9	=9	=9	=9
(8aL	dai-	dai-	dai-	dai-	dai-	dai-	dai-	dai-
8f#J)	.	.	.	.	.	.	.	.
4d}}	-ne.	-ne.	-ne.	-ne.	-ne.	-ne.	-ne.	-ne
*	*rp:ɛ	*rp:ɛ	*rp:ɛ	*rp:ɛ	*rp:ɛ	*rp:ɛ	*rp:ɛ	*rp:ɛ
*	*rf:ɛn,ə	*rf:ɛn,ə	*rf:ɛn,ə	*rf:ɛn,ə	*rf:ɛn,ə	*rf:ɛn,ə	*rf:ɛn,ə	*rf:ɛn,ə
*	*rs:b1	*rs:b1	*rs:b1	*rs:b1	*rs:b1	*rs:b1	*rs:b1	*rs:b1
*	*Xitalic	*Xitalic	*Xitalic	*Xitalic	*Xitalic	*Xitalic	*Xitalic	*Xitalic
*	*Xrefrain	*Xrefrain	*Xrefrain	*Xrefrain	*Xrefrain	*Xrefrain	*Xrefrain	*Xrefrain
=10	=10	=10	=10	=10	=10	=10	=10	=10
*	*pline:1Hbr	*pline:2Hbr	*pline:3Hbr	*pline:4Hbr	*pline:5Hbr	*pline:6Hbr	*pline:7Hbr	*pline:7Hbrm
{{8b	Il	Pleu-	Qui	On	S'é-	Mes-	Con-	Ça
8cc	y a-	-rait	chan-	me	-cri-	-sieurs,	-so-	con-
8dd	-vait	comm[e]	-tait	nom-	-a-	j'ai	-la	-sol'-
8b	u-	un'	à	-me	-t-un	beau-	la	-ra
!!LO:PB:g=original
=11	=11	=11	=11	=11	=11	=11	=11	=11
[4dd	-ne	Ma-	perdr[e]	Mar-	ca-	-coup	Mar-	Mar-
8dd]	.	.	.	.	.	.	.	.
8ee	fon-	-de-	ha-	-jo-	-pi-	de	-jo-	-jo-
=12	=12	=12	=12	=12	=12	=12	=12	=12
(8ccL	-tai-	-lei-	-lei-	-lai-	-tai-	pei-	-lai-	-lai-
8bJ)	.	.	.	.	.	.	.	.
4a}	-ne,	-ne,	-ne,	-ne,	-ne,	-ne,	-ne,	-ne,
*	*rp:ɛ	*rp:ɛ	*rp:ɛ	*rp:ɛ	*rp:ɛ	*rp:ɛ	*rp:ɛ	*rp:ɛ
*	*rf:ɛn,ə	*rf:ɛn,ə	*rf:ɛn,ə	*rf:ɛn,ə	*rf:ɛn,ə	*rf:ɛn,ə	*rf:ɛn,ə	*rf:ɛn,ə
*	*rs:b1	*rs:b1	*rs:b1	*rs:b1	*rs:b1	*rs:b1	*rs:b1	*rs:b1
=13	=13	=13	=13	=13	=13	=13	=13	=13
*>Refrain	*>Refrain	*>Refrain	*>Refrain	*>Refrain	*>Refrain	*>Refrain	*>Refrain	*>Refrain
!!LO:TX:a:B:t=[REFRAIN]
{4.b	Aux	.	.	.	.	.	.	.
8dd	oi-	.	.	.	.	.	.	.
=14	=14	=14	=14	=14	=14	=14	=14	=14
4b	-seaux,	.	.	.	.	.	.	.
4r}	.	.	.	.	.	.	.	.
=15	=15	=15	=15	=15	=15	=15	=15	=15
*	*bis	*	*	*	*	*	*	*
{4.a	Aux	.	.	.	.	.	.	.
8dd	oi-	.	.	.	.	.	.	.
=16	=16	=16	=16	=16	=16	=16	=16	=16
4g}}	-seaux.	.	.	.	.	.	.	.
*	*Xbis	*	*	*	*	*	*	*
==	==	==	==	==	==	==	==	==
*-	*-	*-	*-	*-	*-	*-	*-	*-
!!!EED: Ève Poudrier
!!!EEV: 2025/08/01
